X: 1
T: Thundestruck
R: reel
M: 4/4
L: 1/16
K:Amix
A2|: cAeA cAeA cAeA cAeA| cAeA cAeA cAeA cAeA |
dAf=A dAfA dAfA dAfA | dAf=A dAfA dAfA dAfA :|
|: aAgA fAgA fAeA dAeA | cAdA cAdA cAdA cAdA |
aAgA fAgA fAeA dAeA | cAdA cAdA cAdA cAdA :|
|:GAAG AAGA AGA2 GACA | GAAG AAGA AGA2 GACA :|